Numix-Light-GalliumOS/scalable/actions/media-seek-forward-symbolic.svg

<svg xmlns="http://www.w3.org/2000/svg" viewBox="0 0 16 16" width="16" height="16">
 <path d="m 2.009009,4 c 0.1789821,0.008 0.3543377,0.0592 0.5045045,0.15625 l 5.0450451,3 C 7.8434987,7.33596 8,7.66798 8,8 8,8.33202 7.8434987,8.66404 7.5585586,8.84375 l -5.0450451,3 C 2.3633467,11.94075 2.1879911,11.992 2.009009,12 L 1.8513514,12 1,12 1,4 1.8513514,4 z" fill="#353535" color="#000000"/>
 <path d="m 9.009009,4 c 0.1789821,0.008 0.3543377,0.0592 0.5045045,0.15625 l 5.0450455,3 C 14.843499,7.33596 15,7.66798 15,8 15,8.33202 14.843499,8.66404 14.558559,8.84375 l -5.0450455,3 C 9.3633467,11.94075 9.1879911,11.992 9.009009,12 L 8.8513514,12 8,12 8,4 8.8513514,4 z" fill="#353535" color="#000000"/>
</svg>

<svg xmlns="http://www.w3.org/2000/svg" viewBox="0 0 16 16">
 <path d="m 2.01 4 c 0.179 0.008 0.354 0.059 0.505 0.156 l 5.05 3 c 0.285 0.18 0.441 0.512 0.441 0.844 0 0.332 -0.157 0.664 -0.441 0.844 l -5.05 3 c -0.15 0.097 -0.326 0.148 -0.505 0.156 l -0.158 0 -0.851 0 0 -8 0.851 0 z" style="fill:#353535;color:#000"/>
 <path d="m 9.01 4 c 0.179 0.008 0.354 0.059 0.505 0.156 l 5.05 3 c 0.285 0.18 0.441 0.512 0.441 0.844 0 0.332 -0.157 0.664 -0.441 0.844 l -5.05 3 c -0.15 0.097 -0.326 0.148 -0.505 0.156 l -0.158 0 -0.851 0 0 -8 0.851 0 z" style="fill:#353535;color:#000"/>
</svg>
